public/clientpartners/apescreener.svg

<svg width="140" height="32" viewBox="0 0 140 32" fill="none" xmlns="http://www.w3.org/2000/svg">
<path fill-rule="evenodd" clip-rule="evenodd" d="M46.753 14.76C46.753 12.48 44.8066 11 42.3041 11C39.3448 11 37.8155 12.7 37.7361 14.74H40.5961C40.6159 14.02 41.0132 13.34 42.1055 13.34C42.9993 13.34 43.4958 13.76 43.4958 14.36C43.4958 14.84 43.2177 15.2 42.7014 15.2H41.2714C39.1661 15.2 37.7361 16.4 37.7361 18.38C37.7361 20.06 39.0668 21.4 40.9337 21.4C42.2247 21.4 43.2376 20.84 43.4958 20V21.24H46.753V14.76ZM43.4958 17.2V17.28C43.4958 18.22 42.9 19.1 41.8473 19.1C41.2714 19.1 40.8344 18.74 40.8344 18.22C40.8344 17.62 41.2515 17.2 41.8275 17.2H43.4958ZM47.6356 25.32V11.16H50.9127V12.02C51.4886 11.38 52.3427 11 53.5741 11C55.9088 11 57.5961 12.5014 57.9931 15.0155C58.3996 12.9758 59.8918 11 62.9008 11C66.6943 11 67.9456 13.88 67.9456 16C67.9456 16.46 67.9257 16.74 67.9058 16.98H61.014C61.2126 18.1 61.9078 18.74 63.0994 18.74C63.9932 18.74 64.6089 18.42 64.7876 17.74H67.9456L67.9379 17.78H70.3093C70.4086 18.5 71.0243 18.98 71.8584 18.98C72.5536 18.98 73.0302 18.7 73.0302 18.26C73.0302 17.6284 72.2613 17.4922 71.3158 17.3247C69.8062 17.0573 67.8465 16.7101 67.8465 14.14C67.8465 12.32 69.4354 11 71.4413 11C73.9438 11 75.632 12.34 75.7115 14.38H72.9309C72.8316 13.7 72.2556 13.22 71.5804 13.22C70.9647 13.22 70.5476 13.48 70.5476 14C70.5476 14.6863 71.336 14.7839 72.3048 14.9039C73.5955 15.0636 75.2064 15.2631 75.6999 16.9472C75.6696 16.7048 75.654 16.4555 75.654 16.2C75.654 13.16 77.8586 11 80.937 11C83.7374 11 85.8427 12.72 85.9817 15.1H82.6848C82.5259 14.34 81.8506 13.8 81.0562 13.8C79.8447 13.8 79.0502 14.74 79.0502 16.2C79.0502 17.66 79.8645 18.6 81.0959 18.6C81.9102 18.6 82.5855 18.04 82.7245 17.28H86.0811C85.8229 19.58 83.5587 21.4 80.937 21.4C78.3652 21.4 76.4033 19.8925 75.8272 17.6237C75.8425 17.7795 75.8505 17.9447 75.8505 18.12C75.8505 20.1 74.2815 21.4 71.8584 21.4C69.6994 21.4 68.1318 20.3431 67.6783 18.6402C66.9619 20.3536 65.2136 21.4 63.0994 21.4C60.0605 21.4 58.4267 19.3847 57.9941 17.3237C57.5761 19.8744 55.7169 21.4 53.2761 21.4C52.2434 21.4 51.4092 21.16 50.9127 20.64V25.32H47.6356ZM52.8193 18.6C54.0507 18.6 54.8849 17.64 54.8849 16.2C54.8849 14.76 54.0507 13.8 52.8193 13.8C51.5681 13.8 50.7339 14.76 50.7339 16.2C50.7339 17.64 51.5681 18.6 52.8193 18.6ZM61.014 15.02C61.2325 13.8 61.8482 13.34 62.9008 13.34C64.0329 13.34 64.6486 14.16 64.7082 15.02H61.014ZM99.3351 17.74C99.1563 18.42 98.5406 18.74 97.6469 18.74C96.4552 18.74 95.7601 18.1 95.5615 16.98H102.349C102.665 19.1546 104.308 21.4 107.515 21.4C109.978 21.4 111.944 19.98 112.361 17.74H109.204C109.025 18.42 108.409 18.74 107.515 18.74C106.324 18.74 105.629 18.1 105.43 16.98H112.322C112.342 16.74 112.361 16.46 112.361 16C112.361 13.88 111.11 11 107.317 11C104.303 11 102.811 12.9815 102.407 15.0244C102.069 13.0933 100.682 11 97.4483 11C95.1584 11 93.7469 12.1442 93.0239 13.5901V11.1599H91.9713C90.859 11.1599 90.1242 11.4799 89.5482 12.6799V11.1599H86.2711V21.2399H89.5482V16.1399C89.5482 14.7199 90.1838 13.8799 91.2761 13.8799H92.8897C92.5708 14.6267 92.4234 15.436 92.4234 16.2C92.4234 18.58 94.052 21.4 97.6469 21.4C100.11 21.4 102.076 19.98 102.493 17.74H99.3351ZM95.5615 15.02C95.7799 13.8 96.3956 13.34 97.4483 13.34C98.5803 13.34 99.196 14.16 99.2556 15.02H95.5615ZM107.317 13.34C106.264 13.34 105.648 13.8 105.43 15.02H109.124C109.065 14.16 108.449 13.34 107.317 13.34ZM115.934 11.16H112.657V21.24H115.934V15.68C115.934 14.68 116.629 13.92 117.622 13.92C118.615 13.92 119.31 14.68 119.31 15.68V21.24H122.587V14.9C122.587 12.66 121.118 11 118.873 11C117.563 11 116.51 11.54 115.934 12.32V11.16ZM128.106 18.74C128.999 18.74 129.615 18.42 129.794 17.74H132.952C132.535 19.98 130.568 21.4 128.106 21.4C124.511 21.4 122.882 18.58 122.882 16.2C122.882 13.82 124.312 11 127.907 11C131.701 11 132.952 13.88 132.952 16C132.952 16.46 132.932 16.74 132.912 16.98H126.02C126.219 18.1 126.914 18.74 128.106 18.74ZM127.907 13.34C126.854 13.34 126.239 13.8 126.02 15.02H129.714C129.655 14.16 129.039 13.34 127.907 13.34ZM140 13.8799H138.252C137.16 13.8799 136.524 14.7199 136.524 16.1399V21.2399H133.247V11.1599H136.524V12.6799C137.1 11.4799 137.835 11.1599 138.947 11.1599H140V13.8799Z" fill="white"/>
<path fill-rule="evenodd" clip-rule="evenodd" d="M31.7738 18.304C31.7742 17.541 31.7745 16.778 31.7745 16.0149C31.7745 16.0143 31.7744 16.0137 31.7741 16.0132C31.7739 16.0127 31.7737 16.0121 31.7737 16.0115C31.7737 15.2158 31.7735 14.4201 31.7732 13.6245C31.7726 11.6343 31.7719 9.64432 31.7753 7.6539C31.7769 6.62391 31.6026 5.63316 31.2064 4.68085C30.8794 3.89594 30.4401 3.18632 29.8768 2.55038C29.3222 1.92485 28.696 1.38583 27.9584 0.997378C27.5104 0.761905 27.0449 0.54245 26.5635 0.393477C26.024 0.226083 25.4623 0.0851192 24.9021 0.041869C24.2696 -0.00677224 23.6324 -0.00192761 22.9956 0.0029143C22.804 0.00437084 22.6125 0.00582712 22.4211 0.00582712C22.0734 0.00564238 21.7256 0.00545291 21.3779 0.00526343C17.2028 0.00298851 13.0271 0.00071328 8.85212 0.00662807C8.69718 0.00692149 8.54228 0.00587124 8.3874 0.00482116C7.69674 0.000138598 7.00662 -0.00454038 6.31703 0.109948C5.57942 0.23249 4.87682 0.450343 4.20923 0.769113C3.52175 1.09669 2.90827 1.54601 2.3489 2.06982C1.74178 2.63768 1.25561 3.29765 0.867312 4.02649C0.574496 4.57593 0.330217 5.1534 0.229959 5.77652C0.206836 5.92042 0.180665 6.06448 0.154475 6.20863C0.0770226 6.63495 -0.000591231 7.06215 3.39507e-06 7.48891C0.000612953 7.95829 0.0782715 8.42814 0.15571 8.89666C0.179357 9.03973 0.202984 9.18267 0.22439 9.32544C0.309529 9.88929 0.537894 10.4075 0.779785 10.9169C1.06862 11.5248 1.43862 12.0846 1.89774 12.574C2.22795 12.9256 2.57726 13.266 2.95442 13.5656C3.5687 14.0541 4.25061 14.4394 5.00254 14.666C5.53088 14.8254 6.07196 14.9672 6.6178 15.0401C7.10636 15.1049 7.61083 15.0953 8.10496 15.0641C8.55055 15.0361 9.0033 14.976 9.43298 14.8559C9.91198 14.7221 10.3759 14.5235 10.8318 14.32C11.427 14.0541 11.972 13.6945 12.4391 13.2404C12.9723 12.7227 13.4979 12.1968 14.0236 11.6708C14.4975 11.1968 14.9714 10.7227 15.4508 10.2545C15.6237 10.0857 15.7904 9.90982 15.9571 9.73385C16.4281 9.23682 16.8996 8.7393 17.5125 8.40037C17.9684 8.14807 18.4466 7.95585 18.9622 7.90139C19.5948 7.83411 20.2353 7.79567 20.8456 8.03354L20.8865 8.04943C21.2704 8.19879 21.66 8.35038 22.0074 8.56696C22.6821 8.98745 23.1794 9.57773 23.5391 10.301C23.8247 10.8752 23.9648 11.4751 23.9974 12.1023C24.0221 12.5884 23.9473 13.0658 23.7977 13.5359C23.6027 14.1478 23.3218 14.7125 22.881 15.169C22.2051 15.8683 21.5165 16.5556 20.8281 17.2427C20.5269 17.5433 20.2258 17.8438 19.9258 18.1453C19.8083 18.2633 19.6892 18.38 19.5701 18.4968C19.282 18.7791 18.9938 19.0615 18.7275 19.3635C18.1339 20.0379 17.6565 20.7891 17.3239 21.6341C17.0756 22.2645 16.899 22.9124 16.8306 23.5796C16.7303 24.5575 16.7844 25.529 17.0629 26.4854C17.2308 27.0612 17.4393 27.6163 17.7281 28.1369C18.2373 29.0539 18.9161 29.8284 19.7452 30.466C20.3953 30.965 21.1011 31.3646 21.8896 31.5937C22.3065 31.7146 22.7306 31.8276 23.1587 31.8892C23.6338 31.9573 24.1199 32.0094 24.5965 31.9821C25.1336 31.9517 25.6684 31.8468 26.1967 31.7354C26.994 31.5673 27.7197 31.2132 28.3976 30.7671C28.9864 30.3795 29.5084 29.9109 29.9699 29.3735C30.6494 28.5838 31.1396 27.6851 31.4467 26.6936C31.6751 25.9551 31.7801 25.1919 31.7777 24.4117C31.7719 22.3758 31.7729 20.3399 31.7738 18.304ZM7.44741 31.9997C11.5715 32.0389 15.0073 28.719 14.9811 24.4517C15.036 20.3477 11.7107 16.8901 7.49117 16.9077C3.35912 16.9254 0.0355001 20.1435 0.0012852 24.3932C-0.0329297 28.635 3.25488 31.9596 7.44741 31.9997Z" fill="url(#paint0_linear_677_10526)"/>
<defs>
<linearGradient id="paint0_linear_677_10526" x1="1.63346" y1="33.4589" x2="27.3331" y2="3.81765" gradientUnits="userSpaceOnUse">
<stop stop-color="#FF0080"/>
<stop offset="0.495" stop-color="#FF8C00"/>
<stop offset="1" stop-color="#8FFF00"/>
</linearGradient>
</defs>
</svg>

<svg xmlns="http://www.w3.org/2000/svg" width="140" height="32" fill="none" viewBox="0 0 140 32"><path fill="#fff" fill-rule="evenodd" d="M46.753 14.76c0-2.28-1.946-3.76-4.449-3.76-2.96 0-4.489 1.7-4.568 3.74h2.86c.02-.72.417-1.4 1.51-1.4.893 0 1.39.42 1.39 1.02 0 .48-.278.84-.795.84h-1.43c-2.105 0-3.535 1.2-3.535 3.18 0 1.68 1.33 3.02 3.198 3.02 1.29 0 2.304-.56 2.562-1.4v1.24h3.257zm-3.257 2.44v.08c0 .94-.596 1.82-1.649 1.82-.576 0-1.013-.36-1.013-.88 0-.6.417-1.02.993-1.02zm4.14 8.12V11.16h3.277v.86c.576-.64 1.43-1.02 2.661-1.02 2.335 0 4.022 1.501 4.42 4.015C58.4 12.976 59.891 11 62.9 11c3.793 0 5.045 2.88 5.045 5 0 .46-.02.74-.04.98h-6.892c.199 1.12.894 1.76 2.085 1.76.894 0 1.51-.32 1.689-1h3.158l-.008.04h2.371c.1.72.715 1.2 1.55 1.2.695 0 1.171-.28 1.171-.72 0-.632-.769-.768-1.714-.935-1.51-.268-3.47-.615-3.47-3.185 0-1.82 1.59-3.14 3.595-3.14 2.503 0 4.191 1.34 4.27 3.38h-2.78c-.1-.68-.675-1.16-1.35-1.16-.616 0-1.033.26-1.033.78 0 .686.788.784 1.757.904 1.29.16 2.901.36 3.395 2.043a6 6 0 0 1-.046-.747c0-3.04 2.205-5.2 5.283-5.2 2.8 0 4.906 1.72 5.045 4.1h-3.297a1.65 1.65 0 0 0-1.629-1.3c-1.211 0-2.006.94-2.006 2.4s.815 2.4 2.046 2.4c.814 0 1.49-.56 1.629-1.32h3.356c-.258 2.3-2.522 4.12-5.144 4.12-2.572 0-4.534-1.508-5.11-3.776q.023.232.023.496c0 1.98-1.569 3.28-3.992 3.28-2.159 0-3.726-1.057-4.18-2.76-.716 1.714-2.464 2.76-4.579 2.76-3.038 0-4.672-2.015-5.105-4.076-.418 2.55-2.277 4.076-4.718 4.076-1.033 0-1.867-.24-2.363-.76v4.68zm5.183-6.72c1.232 0 2.066-.96 2.066-2.4s-.834-2.4-2.066-2.4c-1.25 0-2.085.96-2.085 2.4s.834 2.4 2.085 2.4m8.195-3.58c.218-1.22.834-1.68 1.887-1.68 1.132 0 1.748.82 1.807 1.68zm38.321 2.72c-.179.68-.794 1-1.688 1-1.192 0-1.887-.64-2.086-1.76h6.788c.316 2.175 1.959 4.42 5.166 4.42 2.463 0 4.429-1.42 4.846-3.66h-3.157c-.179.68-.795 1-1.689 1-1.191 0-1.886-.64-2.085-1.76h6.892c.02-.24.039-.52.039-.98 0-2.12-1.251-5-5.044-5-3.014 0-4.506 1.982-4.91 4.024-.338-1.93-1.725-4.024-4.959-4.024-2.29 0-3.701 1.144-4.424 2.59v-2.43H91.97c-1.112 0-1.847.32-2.423 1.52v-1.52H86.27v10.08h3.277v-5.1c0-1.42.636-2.26 1.728-2.26h1.614a6 6 0 0 0-.467 2.32c0 2.38 1.629 5.2 5.224 5.2 2.463 0 4.429-1.42 4.846-3.66zm-3.773-2.72c.218-1.22.834-1.68 1.886-1.68 1.132 0 1.748.82 1.808 1.68zm11.755-1.68c-1.053 0-1.669.46-1.887 1.68h3.694c-.059-.86-.675-1.68-1.807-1.68m8.617-2.18h-3.277v10.08h3.277v-5.56c0-1 .695-1.76 1.688-1.76s1.688.76 1.688 1.76v5.56h3.277V14.9c0-2.24-1.469-3.9-3.714-3.9-1.31 0-2.363.54-2.939 1.32zm12.172 7.58c.893 0 1.509-.32 1.688-1h3.158c-.417 2.24-2.384 3.66-4.846 3.66-3.595 0-5.224-2.82-5.224-5.2s1.43-5.2 5.025-5.2c3.794 0 5.045 2.88 5.045 5 0 .46-.02.74-.04.98h-6.892c.199 1.12.894 1.76 2.086 1.76m-.199-5.4c-1.053 0-1.668.46-1.887 1.68h3.694c-.059-.86-.675-1.68-1.807-1.68m12.093.54h-1.748c-1.092 0-1.728.84-1.728 2.26v5.1h-3.277V11.16h3.277v1.52c.576-1.2 1.311-1.52 2.423-1.52H140z" clip-rule="evenodd"/><path fill="url(#a)" fill-rule="evenodd" d="M31.774 18.304v-4.68q-.003-2.985.001-5.97a7.6 7.6 0 0 0-.569-2.973 7.6 7.6 0 0 0-1.33-2.13c-.554-.626-1.18-1.165-1.918-1.554a8.3 8.3 0 0 0-1.394-.604c-.54-.167-1.102-.308-1.662-.351-.632-.049-1.27-.044-1.906-.04q-.287.003-.575.004h-1.043Q15.116 0 8.852.005l-.465.001c-.69-.005-1.38-.01-2.07.105Q5.21.29 4.209.77c-.687.327-1.3.776-1.86 1.3A7.4 7.4 0 0 0 .867 4.026C.574 4.576.33 5.153.23 5.776q-.036.216-.076.433C.077 6.635 0 7.062 0 7.489c0 .47.078.94.156 1.408q.036.215.068.428c.086.564.314 1.083.556 1.592a6.5 6.5 0 0 0 1.118 1.657c.33.352.68.692 1.056.992a6.2 6.2 0 0 0 2.049 1.1c.528.16 1.069.301 1.615.374.488.065.993.055 1.487.024a6.5 6.5 0 0 0 1.328-.208c.479-.134.943-.332 1.399-.536a5.5 5.5 0 0 0 1.607-1.08c.533-.517 1.059-1.043 1.585-1.57.474-.473.947-.947 1.427-1.415q.258-.256.506-.521c.471-.497.943-.995 1.555-1.334.456-.252.935-.444 1.45-.499.633-.067 1.273-.105 1.884.133l.04.015c.384.15.774.301 1.121.518.675.42 1.172 1.01 1.532 1.734a4.5 4.5 0 0 1 .458 1.801c.025.486-.05.964-.2 1.434-.194.612-.475 1.177-.916 1.633-.676.7-1.364 1.387-2.053 2.074q-.452.45-.902.902l-.356.352c-.288.282-.576.564-.843.866a7.7 7.7 0 0 0-1.403 2.271 7.4 7.4 0 0 0-.493 1.946c-.1.978-.047 1.949.232 2.905.168.576.376 1.131.665 1.652a7.5 7.5 0 0 0 2.017 2.329c.65.499 1.356.899 2.145 1.128.416.12.84.234 1.269.295.475.068.96.12 1.438.093.537-.03 1.071-.135 1.6-.247.797-.168 1.523-.522 2.2-.968a7.5 7.5 0 0 0 1.573-1.393 7.45 7.45 0 0 0 1.477-2.68 7.6 7.6 0 0 0 .33-2.282q-.006-3.054-.003-6.108M7.447 32a7.46 7.46 0 0 0 7.534-7.548c.055-4.104-3.27-7.562-7.49-7.544-4.132.017-7.455 3.235-7.49 7.485C-.033 28.635 3.255 31.96 7.447 32" clip-rule="evenodd"/><defs><linearGradient id="a" x1="1.633" x2="27.333" y1="33.459" y2="3.818" gradientUnits="userSpaceOnUse"><stop stop-color="#ff0080"/><stop offset=".495" stop-color="#ff8c00"/><stop offset="1" stop-color="#8fff00"/></linearGradient></defs></svg>
